X:1
T:James Gibb editions
T:Romerico tú que vienes- Encina
T:#
%%score [ 1 2 3 ]
L:1/8
Q:1/4=108
M:4/4
K:Eb
V:1 treble nm="Soprano" snm="S"
V:2 treble-8 nm="Tenor" snm="T"
V:3 bass nm="Bass" snm="B"
V:1
"^Romerico tú que vienes""^Juan del Encina\n(1468-1529)" G2 G2 A4 | F2 (B3 A) (GF) | E4 E4 | %3
w: Ro- me- ri-|co tú * que *|vie- nes|
w: |||
w: |||
 E2 F2 G4 | F2 E2 D4 | C4 z4 | c2 c2 B2 (c2- |[M:4/4] c2 BA) G2 (A2- | AG G4 F2) | G8 |: G2 G2 A4 | %11
w: de don- de|mi vi- da~es-|tá,|las nue- vas de\-|* * * lla me||da.|Da- me nue-|
w: |||||||Véo- me tri-|
w: |||||||Yo bien sé|
 G2 c4 =B2 | c2 c2 z4 | c2 c2 B2 (c2- | c2 BA) G2 (A2- | AG G4 F2) | G8 | G2 G2 A4 | G2 c4 B2 | %19
w: vas de mi|vi- da.|¡Ay si Dios te|* * * dé pla\-||cer!|Si tú me|quie- res ha-|
w: ste,~a- fle- gi-|do, más|que to- dos des\-|* * * di- cha\-||do,|que~~en el tiem-|po ya pa-|
w: que par- ti-|ste con|mu- cha des- es\-|* * * per- an\-||za,|y tu bien-|a- ven- tu-|
 c4 z4 | c2 c2 B2 (c2- | c2 (BA)) G2 (A2- | AG) (G4 F2) | G8 | G2 G2 A4 | F2 (B2- BA) (GF) | %26
w: cer|a- le- gre con|* * * tu ve\-|* * ni\- *|da,|que des- pués|de mi * * par\- *|
w: sa-|do so- lía ser|* * * co- no\-|* * ci\- *|do|Más a- go-|ra con * * ol\- *|
w: ran-|za, vi- no y|* no * la co-|no\- * ci\- *|ste.|¡Más es- fuer-|za,~~es- fuer\- * * za *|
 E4 E4 | E2 F2 G4 | F2 E2 D4 | C4 z4 | c2 c2 B2 (c2- | c2 BA) G2 (A2- | AG G4 F2) | G8 :| %34
w: ti- da|de mal en|pe- or me|va.|||||
w: vi- do|in me- mo-|ria muer- ta~~es-|tá.|Las nue- vas de\-|* * * lla me||da.|
w: tri- ste!|que~ tu~~a- cuer-|do vi- vo~~es-|tá.|||||
 G2 G2 A4 | F2 (B3 A) (GF) | E4 E4 | E2 F2 G4 | F2 E2 D4 | C4 z4 | c2 c2 B2[Q:1/4=107] (c2- | %41
w: ||vie- nes|de don- de|mi vi- da~es-|tá,|las nue- vas de\-|
w: Ro- me- ri-|co tú * que *||||||
w: |||||||
[Q:1/4=106] c2[Q:1/4=105] B[Q:1/4=104]A)[Q:1/4=103] G2[Q:1/4=102] (A2- | %42
w: * * * lla me|
w: |
w: |
[Q:1/4=101] A[Q:1/4=100]G[Q:1/4=99] G4[Q:1/4=97] F2) |[Q:1/4=94] G8 |] %44
w: |da.|
w: ||
w: ||
V:2
 G2 B2 c4 | d4 B2 B2 | (c2 BA) G4 | G2 A2 (B3 A) | B2 c4 B2 | c4 z4 | e2 e2 e4 | %7
w: Ro- me- ri-|co tú que|vie\- * * nes|de don- de *|mi vi- da~es-|tá,|las nue- vas|
w: |||||||
w: |||||||
[M:4/4][K:treble-8] (e3 d) e2 (c2- | c2 B2 c4) | d8 |: e2 e2 (c2 d2) | e2 c2 (d4 | c2) c2 z4 | %13
w: de\- * lla me||da.|Da- me nue\- *|vas de mi|vi- da.|
w: |||Vé~~o- me tri\- *|ste,~a- fle- gi-|do, más|
w: |||Yo bien sé *|que par- ti\-|* ste|
 e2 e2 e4 | (e3 d) e2 (c2- | c2 B2) c4 | d8 | e2 e2 (c2 d2) | e2 c2 d4 | c4 z4 | e2 e2 e4 | %21
w: ¡Ay si Dios|te * dé pla\-||cer!|Si tú me *|quie- res ha-|cer|a- le- gre|
w: que to- dos|des\- * di- cha\-||do,|que~~en el tiem\- *|po ya pa-|sa-|do so- lía|
w: con mu- cha|des\- * es- per\-|* * an-|za,~~y|tu bien- a\- *|ven- tu- ran-|za,|vi- no y|
 e3 d e2 c2- | c2 (B2 c4) | d8 | G2 B2 c4 | d4 B2 B2 | (c2 BA) G4 | G2 A2 (B3 A) | B2 c4 B2 | %29
w: con * tu ve\-|* ni\- *|da,|que des- pués|de mi par-|ti\- * * da|de mal en *|pe- or me|
w: ser * co- no\-|* ci\- *|do|Más a- go-|ra con ol-|vi\- * * do|in me- mo\- *|ria muer- ta~~es-|
w: no la co- no\-|* ci\- *|ste.|¡Más es- fuer-|za,~~es- fuer- za|tri\- * * ste!|que tu~~a- cuer\- *|do vi- vo~~es-|
 c4 z4 | e2 e2 e4 | (e3 d) e2 (c2- | c2 B2 c4) | d8 :| G2 B2 c4 | d4 B2 B2 | (c2 BA) G4 | %37
w: va.|||||||vie\- * * nes|
w: tá.|Las nue- vas|de\- * lla me||da.|Ro- me- ri-|co tú que||
w: tá.||||||||
 G2 A2 (B3 A) | B2 c4 B2 | c4 z4 | e2 e2 e4 | (e3 d) e2 (c2- | c2 B2 c4) | d8 |] %44
w: de don- de *|mi vi- da~es-|tá,|las nue- vas|de\- * lla me||da.|
w: |||||||
w: |||||||
V:3
 G,2 G,2 F,4 | B,2 (G,3 F,) (E,D,) | C,4 C,4 | C,2 F,2 E,4 | D,2 C,2 G,4 | C,4 z4 | %6
w: Ro- me- ri-|co tú * que *|vie- nes|de don- de|mi vi- da~es-|tá,|
w: ||||||
w: ||||||
 A,2 A,2 G,2 (A,2- |[M:4/4] A,2 G,F,) E,2 (F,2- | F,2 G,2 A,4) | G,8 |: E,2 E,2 F,4 | E,2 A,2 G,4 | %12
w: las nue- vas de\-|* * * lla me||da.|Da- me nue-|vas de mi|
w: ||||Vé- o- me|tri- ste,~~a- fle-|
w: ||||Yo bien sé|que par- ti-|
 C,2 C,2 z4 | A,2 A,2 G,2 (A,2- | A,2 (G,F,)) E,2 (F,2- | F,2 G,2 A,4) | G,8 | E,2 E,2 F,4 | %18
w: vi da.|¡Ay si Dios te|* * * de pla\-||cer!|Si tú me|
w: gi- do,|más que to- dos|* des\- * di- cha\-||do,|que~en el tiem-|
w: ste con|mu- cha des- es\-|* * * per- an\-||za,~~y|tu bien- a-|
 E,2 A,2 G,4 | C,4 z4 | A,2 A,2 G,2 (A,2- | A,2 (G,F,)) E,2 F,2- | F,2 (G,2 A,4) | G,8 | %24
w: quie- res ha-|cer|a- le- gre con|* * * tu ve\-|* ni\- *|da,|
w: po ya pa-|sa-|do so- lía ser|* * * co- no\-|* ci\- *|do|
w: ven- tu- ran-|za,|vi- no y no|* la * co- no\-|* ci\- *|ste.|
 G,2 G,2 F,4 | B,2 (G,2- G,F,) (E,D,) | C,4 C,4 | C,2 F,2 E,4 | D,2 C,2 G,4 | C,4 z4 | %30
w: que des- pués|de mi * * par\- *|ti- da|de mal en|pe- or me|va.|
w: Más a- go-|ra con * * ol\- *|vi- do|in me- mo-|ria muer- ta~~es-|tá.|
w: ¡Más es- fuer-|za,~~es- fuer\- * * za *|tri- ste!|que tu~~a- cuer-|do vi- vo~~es-|tá.|
 A,2 A,2 G,2 (A,2- | A,2 G,F,) E,2 (F,2- | F,2 G,2 A,4) | G,8 :| G,2 G,2 F,4 | %35
w: |||||
w: Las nue- vas de\-|* * * lla me||da.|Ro- me- ri-|
w: |||||
 B,2 (G,3 F,) (E,D,) | C,4 C,4 | C,2 F,2 E,4 | D,2 C,2 G,4 | C,4 z4 | A,2 A,2 G,2 (A,2- | %41
w: |vie- nes|de don- de|mi vi- da~es-|tá,|las nue- vas de\-|
w: co tú * que *||||||
w: ||||||
 A,2 G,F,) E,2 (F,2- | F,2 G,2 A,4) | G,8 |] %44
w: * * * lla me||da.|
w: |||
w: |||

